src/Assets/icons/document.svg

<svg class="svg-icon" viewBox="0 0 24 24" fill="none" xmlns="http://www.w3.org/2000/svg">
<path d="M17.8284 6.82843C18.4065 7.40649 18.6955 7.69552 18.8478 8.06306C19 8.4306 19 8.83935 19 9.65685L19 17C19 18.8856 19 19.8284 18.4142 20.4142C17.8284 21 16.8856 21 15 21H9C7.11438 21 6.17157 21 5.58579 20.4142C5 19.8284 5 18.8856 5 17L5 7C5 5.11438 5 4.17157 5.58579 3.58579C6.17157 3 7.11438 3 9 3H12.3431C13.1606 3 13.5694 3 13.9369 3.15224C14.3045 3.30448 14.5935 3.59351 15.1716 4.17157L17.8284 6.82843Z" stroke="currentColor" stroke-width="2" stroke-linejoin="round"/>
</svg>

<svg class="svg-icon" viewBox="0 0 24 24" fill="none" xmlns="http://www.w3.org/2000/svg"><path d="M17.828 6.828c.579.578.867.868 1.02 1.235.152.368.152.776.152 1.594V17c0 1.886 0 2.828-.586 3.414C17.828 21 16.886 21 15 21H9c-1.886 0-2.828 0-3.414-.586C5 19.828 5 18.886 5 17V7c0-1.886 0-2.828.586-3.414C6.172 3 7.114 3 9 3h3.343c.818 0 1.226 0 1.594.152.368.152.657.442 1.235 1.02l2.656 2.656Z" stroke="currentColor" stroke-width="2" stroke-linejoin="round"/></svg>
